48x48/apps/SpiderOak.svg

<svg viewBox="0 0 48 48"><defs><linearGradient id="linearGradient3764" x1="1" x2="47" gradientUnits="userSpaceOnUse" gradientTransform="matrix(0,-1,1,0,-1.5e-6,47.999998)"><stop stop-color="#e4e4e4" stop-opacity="1"/><stop offset="1" stop-color="#eee" stop-opacity="1"/></linearGradient><clipPath id="clipPath-302496923"><g transform="translate(0,-1004.3622)"><path d="m -24 13 c 0 1.105 -0.672 2 -1.5 2 -0.828 0 -1.5 -0.895 -1.5 -2 0 -1.105 0.672 -2 1.5 -2 0.828 0 1.5 0.895 1.5 2 z" transform="matrix(15.333333,0,0,11.5,414.99999,878.8622)" fill="#1890d0"/></g></clipPath><clipPath id="clipPath-315846200"><g transform="translate(0,-1004.3622)"><path d="m -24 13 c 0 1.105 -0.672 2 -1.5 2 -0.828 0 -1.5 -0.895 -1.5 -2 0 -1.105 0.672 -2 1.5 -2 0.828 0 1.5 0.895 1.5 2 z" transform="matrix(15.333333,0,0,11.5,414.99999,878.8622)" fill="#1890d0"/></g></clipPath></defs><g><path d="m 36.31 5 c 5.859 4.062 9.688 10.831 9.688 18.5 c 0 12.426 -10.07 22.5 -22.5 22.5 c -7.669 0 -14.438 -3.828 -18.5 -9.688 c 1.037 1.822 2.306 3.499 3.781 4.969 c 4.085 3.712 9.514 5.969 15.469 5.969 c 12.703 0 23 -10.298 23 -23 c 0 -5.954 -2.256 -11.384 -5.969 -15.469 c -1.469 -1.475 -3.147 -2.744 -4.969 -3.781 z m 4.969 3.781 c 3.854 4.113 6.219 9.637 6.219 15.719 c 0 12.703 -10.297 23 -23 23 c -6.081 0 -11.606 -2.364 -15.719 -6.219 c 4.16 4.144 9.883 6.719 16.219 6.719 c 12.703 0 23 -10.298 23 -23 c 0 -6.335 -2.575 -12.06 -6.719 -16.219 z" opacity="0.05"/><path d="m 41.28 8.781 c 3.712 4.085 5.969 9.514 5.969 15.469 c 0 12.703 -10.297 23 -23 23 c -5.954 0 -11.384 -2.256 -15.469 -5.969 c 4.113 3.854 9.637 6.219 15.719 6.219 c 12.703 0 23 -10.298 23 -23 c 0 -6.081 -2.364 -11.606 -6.219 -15.719 z" opacity="0.1"/><path d="m 31.25 2.375 c 8.615 3.154 14.75 11.417 14.75 21.13 c 0 12.426 -10.07 22.5 -22.5 22.5 c -9.708 0 -17.971 -6.135 -21.12 -14.75 a 23 23 0 0 0 44.875 -7 a 23 23 0 0 0 -16 -21.875 z" opacity="0.2"/></g><g><path d="m 24 1 c 12.703 0 23 10.297 23 23 c 0 12.703 -10.297 23 -23 23 -12.703 0 -23 -10.297 -23 -23 0 -12.703 10.297 -23 23 -23 z" fill="url(#linearGradient3764)" fill-opacity="1"/></g><g/><g><g clip-path="url(#clipPath-302496923)"><g transform="translate(1,1)"><g opacity="0.1"><!-- color: #eeeeee --><g><path d="m 11.207 27.28 l 1.25 4.18 l 24.543 -8.094 l -1.332 -4.094 m -24.461 8.01" fill="#000" stroke="none" fill-rule="nonzero" fill-opacity="1"/><path d="m 11.934 20.16 l -0.934 4.27 l 24.746 6.355 l 0.914 -4.277 m -24.727 -6.348" fill="#000" stroke="none" fill-rule="nonzero" fill-opacity="1"/><path d="m 13.348 17.375 l 3.141 -2.906 l 10.484 12.328 l -3.078 2.566 m -10.547 -11.988" fill="#000" stroke="none" fill-rule="nonzero" fill-opacity="1"/><path d="m 32.355 14.859 l 2.809 3.254 l -11.902 10.863 l -1.922 -3.621 m 11.02 -10.496" fill="#000" stroke="none" fill-rule="nonzero" fill-opacity="1"/><path d="m 18.414 12.949 l 4.07 -0.938 l 3.188 13.707 l -4.137 0.984 m -3.121 -13.754" fill="#000" stroke="none" fill-rule="nonzero" fill-opacity="1"/><path d="m 26.305 12 l 3.98 1.293 l -4.105 13.52 l -3.809 -1.289 m 3.934 -13.523" fill="#000" stroke="none" fill-rule="nonzero" fill-opacity="1"/><path d="m 21.5 24 l 5 0 l 0 12 l -5 0 m 0 -12" fill="#000" stroke="none" fill-rule="nonzero" fill-opacity="1"/></g></g></g></g></g><g><g clip-path="url(#clipPath-315846200)"><!-- color: #eeeeee --><g><path d="m 11.207 27.28 l 1.25 4.18 l 24.543 -8.094 l -1.332 -4.094 m -24.461 8.01" fill="#d06920" stroke="none" fill-rule="nonzero" fill-opacity="1"/><path d="m 11.934 20.16 l -0.934 4.27 l 24.746 6.355 l 0.914 -4.277 m -24.727 -6.348" fill="#ea7c1e" stroke="none" fill-rule="nonzero" fill-opacity="1"/><path d="m 13.348 17.375 l 3.141 -2.906 l 10.484 12.328 l -3.078 2.566 m -10.547 -11.988" fill="#de8719" stroke="none" fill-rule="nonzero" fill-opacity="1"/><path d="m 32.355 14.859 l 2.809 3.254 l -11.902 10.863 l -1.922 -3.621 m 11.02 -10.496" fill="#ffc808" stroke="none" fill-rule="nonzero" fill-opacity="1"/><path d="m 18.414 12.949 l 4.07 -0.938 l 3.188 13.707 l -4.137 0.984 m -3.121 -13.754" fill="#f4aa17" stroke="none" fill-rule="nonzero" fill-opacity="1"/><path d="m 26.305 12 l 3.98 1.293 l -4.105 13.52 l -3.809 -1.289 m 3.934 -13.523" fill="#ecb90a" stroke="none" fill-rule="nonzero" fill-opacity="1"/><path d="m 21.5 24 l 5 0 l 0 12 l -5 0 m 0 -12" fill="#c71a20" stroke="none" fill-rule="nonzero" fill-opacity="1"/></g></g></g><g><path d="m 40.03 7.531 c 3.712 4.084 5.969 9.514 5.969 15.469 0 12.703 -10.297 23 -23 23 c -5.954 0 -11.384 -2.256 -15.469 -5.969 4.178 4.291 10.01 6.969 16.469 6.969 c 12.703 0 23 -10.298 23 -23 0 -6.462 -2.677 -12.291 -6.969 -16.469 z" opacity="0.1"/></g></svg>

<?xml version="1.0" encoding="UTF-8" standalone="no"?>
<svg
   xmlns:dc="http://purl.org/dc/elements/1.1/"
   xmlns:cc="http://creativecommons.org/ns#"
   xmlns:rdf="http://www.w3.org/1999/02/22-rdf-syntax-ns#"
   xmlns:svg="http://www.w3.org/2000/svg"
   xmlns="http://www.w3.org/2000/svg"
   xmlns:sodipodi="http://sodipodi.sourceforge.net/DTD/sodipodi-0.dtd"
   xmlns:inkscape="http://www.inkscape.org/namespaces/inkscape"
   viewBox="0 0 48 48"
   id="svg2"
   version="1.1"
   inkscape:version="0.48.4 r9939"
   width="100%"
   height="100%"
   sodipodi:docname="SpiderOak.svg">
  <metadata
     id="metadata85">
    <rdf:RDF>
      <cc:Work
         rdf:about="">
        <dc:format>image/svg+xml</dc:format>
        <dc:type
           rdf:resource="http://purl.org/dc/dcmitype/StillImage" />
      </cc:Work>
    </rdf:RDF>
  </metadata>
  <sodipodi:namedview
     pagecolor="#ffffff"
     bordercolor="#666666"
     borderopacity="1"
     objecttolerance="10"
     gridtolerance="10"
     guidetolerance="10"
     inkscape:pageopacity="0"
     inkscape:pageshadow="2"
     inkscape:window-width="1375"
     inkscape:window-height="876"
     id="namedview83"
     showgrid="false"
     inkscape:zoom="4.9166667"
     inkscape:cx="-0.20338983"
     inkscape:cy="24"
     inkscape:window-x="65"
     inkscape:window-y="24"
     inkscape:window-maximized="1"
     inkscape:current-layer="svg2" />
  <defs
     id="defs4">
    <linearGradient
       id="linearGradient3764"
       x1="1"
       x2="47"
       gradientUnits="userSpaceOnUse"
       gradientTransform="matrix(0,-1,1,0,-1.5e-6,47.999998)">
      <stop
         stop-color="#e4e4e4"
         stop-opacity="1"
         id="stop7" />
      <stop
         offset="1"
         stop-color="#eee"
         stop-opacity="1"
         id="stop9" />
    </linearGradient>
    <clipPath
       id="clipPath-302496923">
      <g
         transform="translate(0,-1004.3622)"
         id="g12">
        <path
           d="m -24 13 c 0 1.105 -0.672 2 -1.5 2 -0.828 0 -1.5 -0.895 -1.5 -2 0 -1.105 0.672 -2 1.5 -2 0.828 0 1.5 0.895 1.5 2 z"
           transform="matrix(15.333333,0,0,11.5,414.99999,878.8622)"
           fill="#1890d0"
           id="path14" />
      </g>
    </clipPath>
    <clipPath
       id="clipPath-315846200">
      <g
         transform="translate(0,-1004.3622)"
         id="g17">
        <path
           d="m -24 13 c 0 1.105 -0.672 2 -1.5 2 -0.828 0 -1.5 -0.895 -1.5 -2 0 -1.105 0.672 -2 1.5 -2 0.828 0 1.5 0.895 1.5 2 z"
           transform="matrix(15.333333,0,0,11.5,414.99999,878.8622)"
           fill="#1890d0"
           id="path19" />
      </g>
    </clipPath>
    <linearGradient
       id="linearGradient3764-3"
       x1="1"
       x2="47"
       gradientUnits="userSpaceOnUse"
       gradientTransform="matrix(0,-1,1,0,-1.5e-6,47.999998)">
      <stop
         stop-color="#b5945b"
         stop-opacity="1"
         id="stop7-1" />
      <stop
         offset="1"
         stop-color="#bb9e69"
         stop-opacity="1"
         id="stop9-3" />
    </linearGradient>
    <clipPath
       id="clipPath-899834956">
      <g
         transform="translate(0,-1004.3622)"
         id="g12-2">
        <path
           d="m -24 13 c 0 1.105 -0.672 2 -1.5 2 -0.828 0 -1.5 -0.895 -1.5 -2 0 -1.105 0.672 -2 1.5 -2 0.828 0 1.5 0.895 1.5 2 z"
           transform="matrix(15.333333,0,0,11.5,414.99999,878.8622)"
           fill="#1890d0"
           id="path14-6" />
      </g>
    </clipPath>
    <clipPath
       id="clipPath-909443126">
      <g
         transform="translate(0,-1004.3622)"
         id="g17-1">
        <path
           d="m -24 13 c 0 1.105 -0.672 2 -1.5 2 -0.828 0 -1.5 -0.895 -1.5 -2 0 -1.105 0.672 -2 1.5 -2 0.828 0 1.5 0.895 1.5 2 z"
           transform="matrix(15.333333,0,0,11.5,414.99999,878.8622)"
           fill="#1890d0"
           id="path19-7" />
      </g>
    </clipPath>
    <clipPath
       id="clipPath-909443126-7">
      <g
         transform="translate(0,-1004.3622)"
         id="g17-2">
        <path
           style="fill:#1890d0"
           inkscape:connector-curvature="0"
           d="m -24,13 c 0,1.105 -0.672,2 -1.5,2 -0.828,0 -1.5,-0.895 -1.5,-2 0,-1.105 0.672,-2 1.5,-2 0.828,0 1.5,0.895 1.5,2 z"
           transform="matrix(15.333333,0,0,11.5,414.99999,878.8622)"
           id="path19-3" />
      </g>
    </clipPath>
    <linearGradient
       id="linearGradient3759">
      <stop
         id="stop3761"
         offset="0"
         style="stop-color:#a75e15;stop-opacity:1;" />
      <stop
         id="stop3763"
         offset="1"
         style="stop-color:#ffffff;stop-opacity:0;" />
    </linearGradient>
    <linearGradient
       id="linearGradient3777">
      <stop
         id="stop3779"
         offset="0"
         style="stop-color:#e0dd00;stop-opacity:1;" />
      <stop
         id="stop3781"
         offset="1"
         style="stop-color:#000000;stop-opacity:0;" />
    </linearGradient>
  </defs>
  <g
     id="g33" />
  <g
     id="g3109">
    <g
       inkscape:label="shadows"
       id="layer2">
      <rect
         ry="13.03658"
         rx="13.03658"
         y="1"
         x="1"
         height="46"
         width="46"
         id="rect3007"
         style="opacity:0.1;fill:#000000;fill-opacity:1;fill-rule:nonzero;stroke:none" />
      <rect
         style="opacity:0.1;fill:#000000;fill-opacity:1;fill-rule:nonzero;stroke:none"
         id="rect3011"
         width="47"
         height="47"
         x="0.5"
         y="0.5"
         rx="13.319984"
         ry="13.319984" />
      <rect
         style="opacity:0.1;fill:#000000;fill-opacity:1;fill-rule:nonzero;stroke:none"
         id="rect3013"
         width="46.5"
         height="46.5"
         x="0.75"
         y="0.75"
         rx="13.178282"
         ry="13.178282" />
    </g>
    <g
       style="display:inline"
       inkscape:label="background-color"
       id="layer1">
      <rect
         transform="matrix(0,-1,1,0,0,0)"
         ry="12.753176"
         rx="12.753176"
         y="1.5"
         x="-46.5"
         height="45"
         width="45"
         id="rect2988"
         style="fill:#ececec;fill-opacity:1;fill-rule:nonzero;stroke:none" />
    </g>
  </g>
  <g
     id="g3117">
    <g
       id="g3119"
       clip-path="url(#clipPath-315846200)">
      <!-- color: #eeeeee -->
      <g
         id="g3121">
        <path
           id="path3123"
           d="m 11.207,27.28 1.25,4.18 L 37,23.366 35.668,19.272 m -24.461,8.01"
           inkscape:connector-curvature="0"
           style="fill:#d06920;fill-opacity:1;fill-rule:nonzero;stroke:none" />
        <path
           id="path3125"
           d="M 11.934,20.16 11,24.43 35.746,30.785 36.66,26.508 M 11.933,20.16"
           inkscape:connector-curvature="0"
           style="fill:#ea7c1e;fill-opacity:1;fill-rule:nonzero;stroke:none" />
        <path
           id="path3127"
           d="m 13.348,17.375 3.141,-2.906 10.484,12.328 -3.078,2.566 M 13.348,17.375"
           inkscape:connector-curvature="0"
           style="fill:#de8719;fill-opacity:1;fill-rule:nonzero;stroke:none" />
        <path
           id="path3129"
           d="M 32.355,14.859 35.164,18.113 23.262,28.976 21.34,25.355 M 32.36,14.859"
           inkscape:connector-curvature="0"
           style="fill:#ffc808;fill-opacity:1;fill-rule:nonzero;stroke:none" />
        <path
           id="path3131"
           d="m 18.414,12.949 4.07,-0.938 3.188,13.707 -4.137,0.984 M 18.414,12.948"
           inkscape:connector-curvature="0"
           style="fill:#f4aa17;fill-opacity:1;fill-rule:nonzero;stroke:none" />
        <path
           id="path3133"
           d="m 26.305,12 3.98,1.293 -4.105,13.52 -3.809,-1.289 m 3.934,-13.523"
           inkscape:connector-curvature="0"
           style="fill:#ecb90a;fill-opacity:1;fill-rule:nonzero;stroke:none" />
        <path
           id="path3135"
           d="m 21.5,24 5,0 0,12 -5,0 m 0,-12"
           inkscape:connector-curvature="0"
           style="fill:#c71a20;fill-opacity:1;fill-rule:nonzero;stroke:none" />
      </g>
    </g>
  </g>
</svg>
